X:1
T: Julia's Wedding
C:
R:Reel
Q: 232
K:G
M:4/4
L:1/8
|:dc|BG cA BG AF|GF GA Bd ef|gf ge dB Ac|BG AF GD EF|
G2 BG AG EF|GF GA Bd ef|gf ge dB GB|AD EF G2:|
|:Bc|dB GB ec Ac|gf ga gd Bd|ba gb ag fa|gf ge dc Bc|
dB GB ec Ac|gf ga gd Bd|ba gb ag fa|fd ef g2:|
